!!!SOCIAL_FUNCTION:	songs of women's dance
!!!PDT:	1939
!!!OTL: No__28_Song_of_Women's_Dance_(a).krn
!!!LANG: Non-Tone
!!!LING_GROUP: Wakashan
!!!REG: Pacific Northwest
**kern	**kern
*staff2	*staff1
=1-	=1-
*clefF4	*clefF4
*k[]	*k[]
*M3/4	*M3/4
8GG/	2B\
4.r	.
8GG/	12B\L
.	12A\
8r	.
.	12B\J
=2	=2
2.r	4.c\
.	8c\
.	8c\
.	8r
=3||	=3||
*M2/4	*M2/4
4r	8.c\L
.	16c\Jk
8GG/L	16B\LL
.	16A\JJ
8GG/J	8r
=4||	=4||
*M3/4	*M3/4
2.r	4.B\
.	8A#\
.	8B\
.	8r
=5||	=5||
*M2/4	*M2/4
4r	8.B\L
.	32A\Jkk
.	32r
8GG/	8A\L
8r	16c\L
.	16B\JJ
=6	=6
4r	4A\
8GG/	8r
8r	16A\LL
.	16c\JJ
=7	=7
4r	8.B\L
.	16B\Jk
8GG/L	16A\LL
.	16A\JJ
8GG/J	8r
=8||	=8||
*M3/8	*M3/8
4r	8.A\L
.	16A\L
8GG/	16B\
.	16c\JJ
=9||	=9||
*M2/4	*M2/4
8GG/	12A\L
.	12A\J
8r	.
.	12r
8GG/	12A\L
.	12A\J
8r	.
.	12r
=10	=10
8GG/	12A\L
.	12A\J
8r	.
.	12r
4r	4r
==	==
*-	*-
